X: 16126
T: Green Groves Of Erin, The
R: reel
M: 4/4
K: Amixolydian
|:A2 cA eAcA|G2 ga gedB|A2 cA eAcA|BGEF GABG|
A2 cA eAcA|G2 ga gedB|A2 cA eAcA|BGEF GABd:|
|:ea a2 ea a2|eg g2 eg g2|ea a2 ea a2|egfa ge d2|
ea a2 ba a2|egfa g3e|dega bgag|egfa gedB:|

